img/whatsapp.svg

<svg width="24" height="24" viewBox="0 0 24 24" fill="none" xmlns="http://www.w3.org/2000/svg">
<path d="M0.0570068 24L1.74401 17.837C0.701343 16.029 0.153936 13.978 0.157007 11.891C0.160007 5.33498 5.49501 -2.22213e-05 12.05 -2.22213e-05C13.6133 -0.00402889 15.1619 0.302203 16.606 0.900933C18.0502 1.49966 19.3611 2.37899 20.463 3.48798C21.5704 4.59087 22.4481 5.90234 23.0454 7.34657C23.6427 8.79079 23.9478 10.3391 23.943 11.902C23.94 18.459 18.605 23.794 12.05 23.794C10.0628 23.7938 8.10737 23.296 6.36201 22.346L0.0570068 24ZM6.65401 20.193C8.33001 21.188 9.93001 21.784 12.046 21.785C17.494 21.785 21.932 17.351 21.935 11.9C21.937 6.43798 17.52 2.00998 12.054 2.00798C6.60201 2.00798 2.16701 6.44198 2.16401 11.892C2.16401 14.117 2.81601 15.783 3.91101 17.526L2.91101 21.174L6.65401 20.193ZM18.041 14.729C17.967 14.605 17.769 14.531 17.471 14.382C17.174 14.233 15.713 13.514 15.44 13.415C15.168 13.316 14.97 13.266 14.77 13.564C14.573 13.861 14.003 14.531 13.83 14.729C13.657 14.927 13.483 14.952 13.186 14.803C12.889 14.654 11.931 14.341 10.796 13.328C9.91301 12.54 9.31601 11.567 9.14301 11.269C8.97001 10.972 9.12501 10.811 9.27301 10.663C9.40701 10.53 9.57001 10.316 9.71901 10.142C9.86901 9.96998 9.91901 9.84598 10.019 9.64698C10.118 9.44898 10.069 9.27498 9.99401 9.12598C9.91901 8.97798 9.32401 7.51498 9.07801 6.91998C8.83601 6.34098 8.59101 6.41898 8.40801 6.40998L7.83801 6.39998C7.64101 6.39998 7.31801 6.47398 7.04701 6.77198C6.77501 7.06998 6.00701 7.78798 6.00701 9.25098C6.00701 10.714 7.07201 12.127 7.22001 12.325C7.36901 12.523 9.31501 15.525 12.296 16.812C13.005 17.118 13.559 17.301 13.99 17.438C14.702 17.664 15.35 17.632 15.862 17.556C16.432 17.471 17.62 16.837 17.868 16.143C18.116 15.448 18.116 14.853 18.041 14.729Z" fill="#51CE5E"/>
</svg>

<svg xmlns="http://www.w3.org/2000/svg" width="24" height="24" fill="none" viewBox="0 0 24 24">
  <g clip-path="url(#a)">
    <path fill="#51CE5E" d="m.057 24 1.687-6.163a11.867 11.867 0 0 1-1.587-5.946C.16 5.335 5.495 0 12.05 0a11.817 11.817 0 0 1 8.413 3.488 11.824 11.824 0 0 1 3.48 8.414c-.003 6.557-5.338 11.892-11.893 11.892a11.9 11.9 0 0 1-5.688-1.448L.057 24Zm6.597-3.807c1.676.995 3.276 1.591 5.392 1.592 5.448 0 9.886-4.434 9.889-9.885.002-5.462-4.415-9.89-9.881-9.892-5.452 0-9.887 4.434-9.89 9.884 0 2.225.652 3.891 1.747 5.634l-1 3.648 3.743-.981Zm11.387-5.464c-.074-.124-.272-.198-.57-.347-.297-.149-1.758-.868-2.031-.967-.272-.099-.47-.149-.67.149-.197.297-.767.967-.94 1.165-.173.198-.347.223-.644.074-.297-.149-1.255-.462-2.39-1.475-.883-.788-1.48-1.761-1.653-2.059-.173-.297-.018-.458.13-.606.134-.133.297-.347.446-.521.15-.172.2-.296.3-.495.099-.198.05-.372-.025-.521-.075-.148-.67-1.611-.916-2.206-.242-.579-.487-.501-.67-.51l-.57-.01c-.197 0-.52.074-.791.372-.272.298-1.04 1.016-1.04 2.479s1.065 2.876 1.213 3.074c.149.198 2.095 3.2 5.076 4.487.709.306 1.263.489 1.694.626.712.226 1.36.194 1.872.118.57-.085 1.758-.719 2.006-1.413.248-.695.248-1.29.173-1.414Z"/>
  </g>
  <defs>
    <clipPath id="a">
      <path fill="#fff" d="M0 0h24v24H0z"/>
    </clipPath>
  </defs>
</svg>
